X: 1
T: (Sous) le Ciel de Paris
C: Hubert Giraud, Jen Dr\'ejac
R: waltz
P: tempo de valse
Z: 2011 John Chambers <jc:trillian.mit.edu> 
M: 6/8
L: 1/16
K: Em
"A"\
|: "Em"B,2E2F2 G4A2 | "Em"B2A2G2 F2E2D2 | "Am"C6 B6 | "D"A6- A4z2 |\
"B7"B,2^D2E2 F4G2 | "Am6"A2c2B2 "B7"A2G2F2 | "Em"E6- "Am"E6- |
[1 "Em"E6 "B7"z6 :|2 "Em"E6- "B7"F2G2F2 "B"[| "C7"E6- E6- | E6z2 "B7"F2G2F2 |\
"Em"E6- "Am"E6- | "Em"E6 "B7"F2G2F2 | "Am"E4F2 G4A2 | "D7"B2c2d2 c2B2A2 |
"G"B6- "Am"B6- | "B7"B_BA_AGF =FE_ED_DC | "Em"B,2E2F2 G4A2 | B2A2G2 F2E2D2 |
"Am7"C6 B6 | "D"A6- A4z2 | "B7"B,2^D2E2 F4G2 | "Am6"A2c2B2 "B7"A2G2F2 |\
"Em"E6- E6- |][K:E] "C"[| "Em"E4B2 "E"B2G3E | "Emaj7"^D6- D6- | D4B2 B2G3E |
"E7"=D6- D6- | D4B2 B2G3E | "A"C6- C6- | C4A2 "A"A2E3C | "C"=C6- C6- | C6 E2=D2=C2 |\
"G"B,4B,2 "C"=C4C2 | "A"^C4C2 "B7"D4D2 |
"E"E4E2 "F#m"F4F2 | "C#m"G6 "Am"A2G2A2 | "B"B6- "C"B6- | "B"B4B2 "F#m7"c2A2F2 |\
"B"B6- "Am6"B6- |[K:=c=g=d] [K:Em] "B7"B_BA_AGF =FE_ED"d.C"_DC |]
"Coda"[|\
"Em"B,2E2F2 G4A2 | "Em"B2A2G2 F2E2D2 | "Am7"C6 B6 | "D"A6- A4z2 |\
"B7"B,2^D2E2 F4G2 | "Am6"A2c2B2 "B7"A2G2F2 | "Em"E6- E6- |
"Am6"E6- E6- | "Em"E6- E6 | "B7"^D6- D6 | "Em"(EFGA^AB c^cd^def |\
(3ga^a) .bz "B7".[^dF]z "Em".[eG]zz2z2 |]
